svgs/light/briefcase-medical.svg

<svg xmlns="http://www.w3.org/2000/svg" viewBox="0 0 512 512"><!-- Font Awesome Pro 6.0.0-alpha2 by @fontawesome - https://fontawesome.com License - https://fontawesome.com/license (Commercial License) --><path d="M448 96H384V48C384 21.531 362.469 0 336 0H176C149.531 0 128 21.531 128 48V96H64C28.654 96 0 124.654 0 160V416C0 451.346 28.654 480 64 480H448C483.348 480 512 451.346 512 416V160C512 124.654 483.348 96 448 96ZM160 48C160 39.172 167.172 32 176 32H336C344.828 32 352 39.172 352 48V96H160V48ZM480 416C480 433.645 465.645 448 448 448H64C46.355 448 32 433.645 32 416V160C32 142.355 46.355 128 64 128H448C465.645 128 480 142.355 480 160V416ZM336 256H288V208C288 199.162 280.836 192 272 192H240C231.164 192 224 199.162 224 208V256H176C167.164 256 160 263.162 160 272V304C160 312.836 167.164 320 176 320H224V368C224 376.836 231.164 384 240 384H272C280.836 384 288 376.836 288 368V320H336C344.836 320 352 312.836 352 304V272C352 263.162 344.836 256 336 256Z"/></svg>

<svg xmlns="http://www.w3.org/2000/svg" viewBox="0 0 512 512"><!--! Font Awesome Pro 6.3.0 by @fontawesome - https://fontawesome.com License - https://fontawesome.com/license (Commercial License) Copyright 2023 Fonticons, Inc. --><path d="M448 96h-64V48C384 21.53 362.5 0 336 0h-160C149.5 0 128 21.53 128 48V96H64C28.65 96 0 124.7 0 160v256c0 35.35 28.65 64 64 64h384c35.35 0 64-28.65 64-64V160C512 124.7 483.3 96 448 96zM160 48C160 39.17 167.2 32 176 32h160C344.8 32 352 39.17 352 48V96H160V48zM480 416c0 17.64-14.36 32-32 32H64c-17.64 0-32-14.36-32-32V160c0-17.64 14.36-32 32-32h384c17.64 0 32 14.36 32 32V416zM336 256H288V208C288 199.2 280.8 192 272 192h-32C231.2 192 224 199.2 224 208V256H176C167.2 256 160 263.2 160 272v32C160 312.8 167.2 320 176 320H224v48C224 376.8 231.2 384 240 384h32c8.836 0 16-7.164 16-16V320h48c8.836 0 16-7.164 16-16v-32C352 263.2 344.8 256 336 256z"/></svg>
